icons/mini/arrow-up-on-square.svg

<svg width="20" height="20" viewBox="0 0 20 20" fill="none" xmlns="http://www.w3.org/2000/svg">
<path fill-rule="evenodd" clip-rule="evenodd" d="M13.75 7H10.75L10.75 3.6599L12.7004 5.76034C12.9823 6.06387 13.4568 6.08145 13.7603 5.7996C14.0639 5.51774 14.0814 5.04319 13.7996 4.73966L10.5496 1.23966C10.4077 1.08684 10.2085 1 10 1C9.79145 1 9.59231 1.08684 9.4504 1.23966L6.2004 4.73966C5.91855 5.04319 5.93613 5.51774 6.23966 5.79959C6.54319 6.08145 7.01774 6.06387 7.29959 5.76034L9.25 3.6599L9.25 7H6.25C5.00736 7 4 8.00736 4 9.25V16.75C4 17.9926 5.00736 19 6.25 19H13.75C14.9926 19 16 17.9926 16 16.75V9.25C16 8.00736 14.9926 7 13.75 7ZM10.75 7H9.25L9.25 12.25C9.25 12.6642 9.58579 13 10 13C10.4142 13 10.75 12.6642 10.75 12.25L10.75 7Z" fill="#0F172A"/>
</svg>

<svg xmlns="http://www.w3.org/2000/svg" viewBox="0 0 20 20" fill="currentColor" aria-hidden="true" data-slot="icon">
  <path fill-rule="evenodd" d="M13.75 7h-3V3.66l1.95 2.1a.75.75 0 1 0 1.1-1.02l-3.25-3.5a.75.75 0 0 0-1.1 0L6.2 4.74a.75.75 0 0 0 1.1 1.02l1.95-2.1V7h-3A2.25 2.25 0 0 0 4 9.25v7.5A2.25 2.25 0 0 0 6.25 19h7.5A2.25 2.25 0 0 0 16 16.75v-7.5A2.25 2.25 0 0 0 13.75 7Zm-3 0h-1.5v5.25a.75.75 0 0 0 1.5 0V7Z" clip-rule="evenodd"/>
</svg>
